X:1

T:Bath Waltz

M:3/4

L:1/8

R:Waltz

K:G

D2|G2G2G2|G4 DG|B2B2B2|B4 GB|d4 BG|e4 cA|F2F2F2|G4:|

|:Bd|dc c2 AF|AG G2 Bd|dc c2 AF|G4 Bd|dc c2 AF|AG G2 Bd|ed fc AF|G4:|

|:D2|G2F2G2|A4 B2|c2E2A2|G2F2D2|G2F2G2|e2f2g2|dcBAGF|G4:|

           

BATHA BUIDE. AKA and see “The Yellow Wattle [2].” Irish. This tune was popular in 1779 as its playing is mentioned by Berringer in an account of a "cake" dance (where a cake was a prize) he attended in Connacht.

           

BATHEING MACHINE.  English, Jig. G Major. Standard tuning. AABB. The melody is unique to Charles and Samuel Thompson’s third country dance collection (London, 1773). A bathing machine was a kind of shack on wheels that could be let into the surf at beaches. This would allow preservation of modesty (primarily for women) while wading or swimming in the ocean. Some attribute the invention of the bathing machine to Benjamin Beale, around 1750, at Margate, Kent. Thompson (Compleat Collection of 200 Favourite Country Dances, vol. 3), 1773; No. 65.

